docs/img/svgicons/media/whatsapp.svg

<svg width="381" height="381" viewBox="0 0 381 381" fill="none" xmlns="http://www.w3.org/2000/svg">
<path d="M324.053 55.2808C306.585 37.6823 285.793 23.7326 262.888 14.2424C239.98 4.75217 215.414 -0.0886016 190.619 0.00122764C157.473 0.0336329 124.915 8.77447 96.2081 25.3483C67.5016 41.9222 43.6537 65.7474 27.0522 94.4377C10.4507 123.128 1.67888 155.678 1.61454 188.824C1.55045 221.973 10.1965 254.554 26.6867 283.309L0 381.24L100.075 355.03C127.709 370.403 158.76 378.597 190.381 378.857C240.65 378.859 288.883 359.004 324.581 323.616C360.282 288.229 380.559 240.172 381 189.906C380.833 164.823 375.715 140.019 365.943 116.918C356.172 93.8159 341.935 72.8702 324.053 55.2808ZM190.619 346.213C162.448 346.233 134.792 338.66 110.559 324.292L104.841 320.718L45.5103 336.444L61.2364 278.544L57.424 272.587C37.1529 239.865 29.5874 200.843 36.1609 162.914C42.7344 124.987 62.9903 90.7874 93.0912 66.7949C123.192 42.8021 161.047 30.6828 199.485 32.7327C237.924 34.7823 274.277 50.8589 301.655 77.9168C331.582 107.181 348.714 147.1 349.31 188.953C348.933 230.791 332.047 270.788 302.327 300.241C272.609 329.692 232.46 346.216 190.619 346.213ZM276.636 228.506C271.871 226.123 248.758 214.686 244.469 213.257C240.18 211.827 236.844 210.874 233.747 215.639C229.086 222.027 224.073 228.151 218.735 233.986C216.114 237.322 213.255 237.561 208.49 233.986C181.319 223.25 158.683 203.473 144.394 177.992C139.39 169.652 149.159 170.129 158.214 152.258C158.883 150.969 159.231 149.54 159.231 148.089C159.231 146.638 158.883 145.208 158.214 143.919C158.214 141.536 147.492 118.185 143.679 108.892C139.867 99.5997 136.054 101.029 132.957 100.791H123.664C121.256 100.828 118.884 101.379 116.707 102.406C114.529 103.433 112.595 104.913 111.036 106.748C105.689 111.947 101.519 118.231 98.8065 125.177C96.0937 132.123 94.9014 139.57 95.3096 147.016C96.8035 164.842 103.516 181.831 114.61 195.863C134.915 226.262 162.743 250.887 195.385 267.345C212.505 277.338 232.4 281.517 252.094 279.258C258.651 277.958 264.863 275.291 270.322 271.431C275.783 267.574 280.37 262.608 283.784 256.861C286.949 249.846 287.945 242.047 286.644 234.463C284.499 232.08 281.401 230.889 276.636 228.506Z" fill="#731C00"/>
</svg>

<svg width="381" height="381" fill="none" xmlns="http://www.w3.org/2000/svg"><path d="M324.053 55.28A187.054 187.054 0 00190.619 0 189.195 189.195 0 0027.052 94.44a189.193 189.193 0 00-.365 188.871L0 381.24l100.075-26.21a188.959 188.959 0 0090.306 23.827 190.61 190.61 0 00134.2-55.241A190.618 190.618 0 00381 189.906a190.612 190.612 0 00-56.947-134.625zM190.619 346.214a156.761 156.761 0 01-80.06-21.921l-5.718-3.574-59.33 15.726 15.725-57.9-3.812-5.957a157.261 157.261 0 01244.231-194.67 158.457 158.457 0 0147.655 111.036 158.694 158.694 0 01-158.691 157.26zm86.017-117.707c-4.765-2.383-27.878-13.82-32.167-15.249-4.289-1.43-7.625-2.383-10.722 2.382a214.457 214.457 0 01-15.012 18.347c-2.621 3.336-5.48 3.575-10.245 0a126.99 126.99 0 01-64.096-55.994c-5.004-8.34 4.765-7.863 13.82-25.734a9.047 9.047 0 000-8.339c0-2.383-10.722-25.734-14.535-35.027-3.812-9.292-7.625-7.863-10.722-8.101h-9.293a16.916 16.916 0 00-12.628 5.957 52.177 52.177 0 00-15.726 40.268 91.013 91.013 0 0019.3 48.847 211.812 211.812 0 0080.775 71.482 91.75 91.75 0 0056.709 11.913 47.613 47.613 0 0018.228-7.827 47.603 47.603 0 0013.462-14.57 38.593 38.593 0 002.86-22.398c-2.145-2.383-5.243-3.574-10.008-5.957z" fill="#731C00"/></svg>
